icon-svg/vaillant.svg

<svg xmlns="http://www.w3.org/2000/svg" viewBox="0 0 24 24"><path fill="#44739e" d="M13.313 12.891c-.054-.028-.082-.014-.1.04-.151.479-.123.683.027.793.232.136.792-.055 1.052-.56.273-.533.232-1.065 0-1.199-.273-.178-.656.041-.82.449 0 .028 0 .055.027.069.069.041.3.177.151.369-.105.134-.296.049-.337.039m3.564 3.537a.166.166 0 0 0 .164-.164.15.15 0 0 0-.15-.177l-2.622.013a.8.8 0 0 1 .014.315Zm-9.764-.355a.164.164 0 1 0 0 .328l2.6-.014a1.2 1.2 0 0 1 .014-.3Zm3.373-3.579c.027-.013.027-.041.027-.068-.164-.409-.546-.627-.818-.45-.233.137-.274.669 0 1.199.258.506.832.7 1.05.56.151-.109.178-.314.028-.792-.014-.054-.041-.068-.1-.041-.027.014-.232.082-.328-.041-.143-.203.073-.339.141-.367M8.383 7.81c.369.629.67 1.093.861.984s-.492-.833-1.134-2.5-.86-2.976-.546-3.017.792 1.326 1.339 2.689a23 23 0 0 1 .929 2.992.17.17 0 0 1-.054.177 3.14 3.14 0 0 0-1.257 2.035c-.137 1.121.56 2.868.328 4.22l-2.036-.109a.164.164 0 0 0-.164.15.154.154 0 0 0 .15.164l2.937.15c.19-.451.627-.382.627-.765a.54.54 0 0 0-.205-.409 4 4 0 0 1-1.215-2.226c-.054-.642.11-1.489.629-1.6.982-.205 1.966 2.048 1.966 3.468 0 .574.027.765-.205 1.093a1.05 1.05 0 0 0-.246.615c.027.287.3.369.437.5.41.4-.014 1.052-.765 1.052a1 1 0 0 1-1.037-.724l-2.308.123c-.082.014-.164.082-.151.164a.155.155 0 0 0 .164.15l1.876-.116a4.36 4.36 0 0 0 2.676 1.788 4.32 4.32 0 0 0 2.677-1.788l1.87.123a.164.164 0 0 0 .164-.15.175.175 0 0 0-.15-.164l-2.308-.123a.976.976 0 0 1-1.024.724c-.751 0-1.175-.656-.765-1.052.137-.136.41-.218.437-.5a.92.92 0 0 0-.246-.615 1.63 1.63 0 0 1-.205-1.093c0-1.42.984-3.673 1.967-3.468.519.1.67.956.629 1.599a4 4 0 0 1-1.23 2.227c-.095.122-.205.2-.205.409 0 .383.451.314.629.765l2.935-.15a.165.165 0 0 0 .151-.164.19.19 0 0 0-.178-.164l-2.034.109c-.232-1.352.464-3.099.328-4.219a3.14 3.14 0 0 0-1.261-2.042.17.17 0 0 1-.055-.178 24 24 0 0 1 .929-2.991c.547-1.365 1.025-2.717 1.338-2.69s.1 1.352-.546 3.018-1.311 2.4-1.133 2.5.492-.355.86-.983a11.6 11.6 0 0 0 1.092-2.622c.4-1.284.533-3.1 0-3.169-.491-.082-1.406 1.339-2.499 3.4a22 22 0 0 0-1.42 3.209.11.11 0 0 1-.137.1 3 3 0 0 0-.642-.055 3.2 3.2 0 0 0-.642.055.116.116 0 0 1-.136-.1 21.4 21.4 0 0 0-1.433-3.213c-1.093-2.044-2.008-3.479-2.5-3.4s-.341 1.885.055 3.183A12 12 0 0 0 8.383 7.81m3.619 9.725a1.7 1.7 0 0 0 .779.491 1.1 1.1 0 0 1-.779.328 1.1 1.1 0 0 1-.779-.328 1.86 1.86 0 0 0 .779-.491m0-12.974a3.8 3.8 0 0 1 1.9.532c.218-.423.423-.792.614-1.12a5 5 0 0 0-2.514-.696 5.05 5.05 0 0 0-2.526.7q.286.491.627 1.12a3.74 3.74 0 0 1 1.899-.536m4.793 1.487a12 12 0 0 1-.586 1.407 11.55 11.55 0 0 1 1.734 5.927 8.24 8.24 0 0 1-1.734 5.177 5.43 5.43 0 0 1-4.207 2.157 5.43 5.43 0 0 1-4.206-2.157 8.27 8.27 0 0 1-1.735-5.177A11.56 11.56 0 0 1 7.81 7.455a11 11 0 0 1-.588-1.407 12.66 12.66 0 0 0-2.458 7.334 9.47 9.47 0 0 0 2.035 5.999A6.68 6.68 0 0 0 12.002 22a6.66 6.66 0 0 0 5.199-2.623 9.55 9.55 0 0 0 2.035-5.999 12.93 12.93 0 0 0-2.441-7.33"/></svg>

<?xml version="1.0" encoding="UTF-8"?>
<svg width="24px" fill="#44739e" height="24px" viewBox="0 0 24 24" version="1.1" xmlns="http://www.w3.org/2000/svg" xmlns:xlink="http://www.w3.org/1999/xlink">
            <path d="m 13.311,12.89 c -0.054,-0.028 -0.082,-0.014 -0.1,0.04 -0.151,0.479 -0.123,0.683 0.027,0.793 0.232,0.136 0.792,-0.055 1.052,-0.56 0.273,-0.533 0.232,-1.066 0,-1.2 -0.273,-0.178 -0.656,0.041 -0.82,0.45 0,0.028 0,0.055 0.027,0.069 0.069,0.041 0.3,0.177 0.151,0.369 -0.105,0.134 -0.296,0.049 -0.337,0.039 z m 3.565,3.537 a 0.166,0.166 0 0 0 0.164,-0.164 0.151,0.151 0 0 0 -0.15,-0.177 l -2.623,0.013 a 0.786,0.786 0 0 1 0.014,0.315 z M 7.11,16.072 a 0.164,0.164 0 1 0 0,0.328 l 2.6,-0.014 a 1.146,1.146 0 0 1 0.014,-0.3 z m 3.374,-3.579 c 0.027,-0.013 0.027,-0.041 0.027,-0.068 -0.164,-0.41 -0.546,-0.628 -0.819,-0.451 -0.233,0.137 -0.274,0.67 0,1.2 0.259,0.506 0.833,0.7 1.051,0.56 0.151,-0.109 0.178,-0.314 0.028,-0.792 -0.014,-0.054 -0.041,-0.068 -0.1,-0.041 -0.027,0.014 -0.232,0.082 -0.328,-0.041 -0.143,-0.203 0.073,-0.339 0.141,-0.367 z M 8.38,7.808 C 8.749,8.437 9.05,8.901 9.241,8.792 9.432,8.683 8.749,7.959 8.107,6.292 7.465,4.625 7.247,3.315 7.561,3.274 7.875,3.233 8.353,4.6 8.9,5.964 A 23.424,23.424 0 0 1 9.829,8.956 0.17,0.17 0 0 1 9.775,9.133 3.137,3.137 0 0 0 8.518,11.168 c -0.137,1.121 0.56,2.869 0.328,4.221 L 6.81,15.28 a 0.164,0.164 0 0 0 -0.164,0.15 0.154,0.154 0 0 0 0.15,0.164 l 2.937,0.15 c 0.191,-0.451 0.628,-0.382 0.628,-0.765 A 0.543,0.543 0 0 0 10.156,14.57 3.991,3.991 0 0 1 8.94,12.343 c -0.054,-0.642 0.11,-1.489 0.629,-1.6 0.983,-0.205 1.967,2.049 1.967,3.469 0,0.574 0.027,0.765 -0.205,1.093 a 1.053,1.053 0 0 0 -0.246,0.615 c 0.027,0.287 0.3,0.369 0.437,0.5 0.41,0.4 -0.014,1.052 -0.765,1.052 A 1,1 0 0 1 9.719,16.748 L 7.411,16.871 C 7.329,16.885 7.247,16.953 7.26,17.035 a 0.155,0.155 0 0 0 0.164,0.15 L 9.3,17.069 a 4.355,4.355 0 0 0 2.677,1.789 4.324,4.324 0 0 0 2.677,-1.789 l 1.871,0.123 a 0.164,0.164 0 0 0 0.164,-0.15 0.175,0.175 0 0 0 -0.15,-0.164 L 14.23,16.755 a 0.976,0.976 0 0 1 -1.024,0.724 c -0.751,0 -1.175,-0.656 -0.765,-1.052 0.137,-0.136 0.41,-0.218 0.437,-0.5 a 0.92,0.92 0 0 0 -0.246,-0.615 1.626,1.626 0 0 1 -0.205,-1.093 c 0,-1.42 0.984,-3.674 1.967,-3.469 0.519,0.1 0.67,0.956 0.629,1.6 a 4,4 0 0 1 -1.23,2.227 c -0.095,0.122 -0.205,0.2 -0.205,0.409 0,0.383 0.451,0.314 0.629,0.765 l 2.936,-0.15 a 0.165,0.165 0 0 0 0.151,-0.164 0.191,0.191 0 0 0 -0.178,-0.164 l -2.035,0.109 c -0.232,-1.352 0.464,-3.1 0.328,-4.22 A 3.138,3.138 0 0 0 14.158,9.12 0.172,0.172 0 0 1 14.103,8.942 23.71,23.71 0 0 1 15.032,5.951 c 0.547,-1.366 1.025,-2.718 1.339,-2.691 0.314,0.027 0.1,1.352 -0.547,3.019 -0.647,1.667 -1.311,2.4 -1.133,2.5 0.178,0.1 0.492,-0.355 0.86,-0.983 a 11.644,11.644 0 0 0 1.093,-2.623 c 0.4,-1.284 0.533,-3.1 0,-3.169 -0.492,-0.082 -1.407,1.339 -2.5,3.4 a 21.957,21.957 0 0 0 -1.42,3.21 0.109,0.109 0 0 1 -0.137,0.1 A 3.117,3.117 0 0 0 11.945,8.659 3.219,3.219 0 0 0 11.303,8.714 0.116,0.116 0 0 1 11.167,8.614 21.345,21.345 0 0 0 9.733,5.4 C 8.64,3.356 7.725,1.921 7.233,2 6.741,2.079 6.892,3.885 7.288,5.183 A 11.9,11.9 0 0 0 8.38,7.808 Z M 12,17.534 A 1.7,1.7 0 0 0 12.779,18.025 1.086,1.086 0 0 1 12,18.353 1.11,1.11 0 0 1 11.221,18.025 1.856,1.856 0 0 0 12,17.534 Z M 12,4.558 A 3.776,3.776 0 0 1 13.9,5.09 C 14.118,4.667 14.323,4.298 14.514,3.97 A 5,5 0 0 0 12,3.274 5.052,5.052 0 0 0 9.473,3.974 c 0.191,0.328 0.4,0.7 0.628,1.12 A 3.738,3.738 0 0 1 12,4.558 Z m 4.794,1.488 a 11.7,11.7 0 0 1 -0.587,1.407 11.547,11.547 0 0 1 1.735,5.928 8.242,8.242 0 0 1 -1.735,5.177 A 5.433,5.433 0 0 1 12,20.716 5.433,5.433 0 0 1 7.793,18.558 8.268,8.268 0 0 1 6.058,13.381 11.562,11.562 0 0 1 7.807,7.453 10.644,10.644 0 0 1 7.219,6.046 a 12.655,12.655 0 0 0 -2.458,7.335 9.469,9.469 0 0 0 2.035,6 A 6.676,6.676 0 0 0 12,22 a 6.657,6.657 0 0 0 5.2,-2.623 9.551,9.551 0 0 0 2.035,-6 12.931,12.931 0 0 0 -2.441,-7.331 z"/>

</svg>
